packages/katcn/src/icons/svg/lowVolume.svg

<svg width="24" height="25" viewBox="0 0 24 25" fill="none" xmlns="http://www.w3.org/2000/svg">
<path fill-rule="evenodd" clip-rule="evenodd" d="M11.5096 2.90441C13.2797 1.27732 16 2.66809 16 4.9647V19.4704C16 21.64 13.4159 23.1567 11.529 21.547C9.22367 19.6631 7.03591 18.0941 4.76938 16.8251C3.06702 15.9382 2 14.0818 2 12.2176C2 10.2629 3.05939 8.39567 4.77808 7.50476C7.32818 6.13883 9.50782 4.57593 11.5096 2.90441ZM14 4.9647C14 4.24936 13.232 4.0305 12.8551 4.38426C12.8411 4.39739 12.8268 4.41012 12.8121 4.42242C10.7233 6.1683 8.42303 7.82191 5.7159 9.27126L5.70264 9.27823C4.69379 9.79907 4 10.9515 4 12.2176C4 13.3696 4.68248 14.5295 5.70264 15.0562C5.71252 15.0613 5.72232 15.0665 5.73203 15.072C8.14068 16.4191 10.4339 18.0687 12.8036 20.0057C12.8101 20.0111 12.8166 20.0165 12.823 20.022C13.0825 20.2453 13.354 20.2476 13.5816 20.1352C13.8299 20.0126 14 19.7642 14 19.4704V4.9647Z" fill="black"/>
<path fill-rule="evenodd" clip-rule="evenodd" d="M18.1863 9.62676C18.5073 9.17734 19.1318 9.07325 19.5812 9.39426C20.541 10.0798 21 11.1623 21 12.208C21 13.3322 20.3683 14.3522 19.6508 14.9673C19.2315 15.3267 18.6002 15.2781 18.2407 14.8588C17.8813 14.4395 17.9299 13.8082 18.3492 13.4487C18.7428 13.1114 19 12.6076 19 12.208C19 11.7298 18.7923 11.2885 18.4187 11.0217C17.9693 10.7007 17.8652 10.0762 18.1863 9.62676Z" fill="black"/>
</svg>

<svg xmlns="http://www.w3.org/2000/svg" fill="none" viewBox="0 0 24 25"><path fill="#000" fill-rule="evenodd" d="M11.51 2.904C13.28 1.277 16 2.668 16 4.964V19.47c0 2.17-2.584 3.687-4.471 2.077-2.305-1.884-4.493-3.453-6.76-4.722C3.067 15.938 2 14.082 2 12.218c0-1.955 1.06-3.822 2.778-4.713 2.55-1.366 4.73-2.93 6.732-4.6M14 4.964c0-.715-.768-.934-1.145-.58l-.043.038c-2.089 1.746-4.389 3.4-7.096 4.85l-.013.006C4.693 9.8 4 10.951 4 12.218c0 1.152.682 2.312 1.703 2.838l.029.016c2.409 1.347 4.702 2.997 7.072 4.934l.019.016c.26.223.531.226.759.113A.74.74 0 0 0 14 19.47zm4.186 4.663a1 1 0 0 1 1.395-.233c.96.686 1.419 1.768 1.419 2.814 0 1.124-.632 2.144-1.35 2.76a1 1 0 0 1-1.3-1.52c.393-.337.65-.84.65-1.24 0-.478-.208-.92-.581-1.186a1 1 0 0 1-.233-1.395" clip-rule="evenodd"/></svg>
